X: 6
T:Boys of the Bunch, Ascott
M:6/8
L:1/8
A:Ascott
P:A(AB)5
K:G
P:A
|:GFG BBA|GEE EFE|DED G2A|BGG G3:|
P:B
|:BAB d2B|AGA B3 |BdB AGA|BGF D3 |
  GFG BBA|GEE EFE|DED G2A|BGG G3:|
